X:1
T:J'ay veu le point du jour
T:Constantijn Huygens
T:J'ay veu le point du jour
T:Aubade
C:Constantijn Huygens
%%score 1 2 { ( 3 5 ) | 4 }
L:1/8
Q:1/4=60
M:3/4
K:Eb
V:1 treble-8 nm="Tenor" snm="T"
V:2 treble transpose=-12 nm="Viola da Gamba" snm="V.Gam."
V:3 treble nm="Harpsichord" snm="Hpschd."
V:5 treble 
V:4 bass 
V:1
 z2 z2 e2 | e2 B2 cd | e3 e dc | c2 z c de |[M:4/4] f2 B2 c4 | B2 G2 B4- | B2 A2 A2 G2 | %7
w: J'ay|veu le point du|jour, il a pa-|ru, il a pa-|ru sur l'on-|de, Sur l'on-|* de de mes|
[M:3/4] G6 | z2 z2 e2 | e2 B2 cd | e3 e dc | c2 z c de |[M:4/4] f2 B2 c4 | B2 G2 B4- | %14
w: pleurs.|Mon|A- stre vient chas-|ser, en es- clai-|rant, en es- clai-|rant le mon-|de, La nuict|
 B2 A2 A2 G2 |[M:3/4] G4 Gc | B2 B2 _d2 | c2 f2 c2 | d4 ee | f4 FF |[M:4/4] B6 GG |[M:3/4] G4 F2 | %22
w: _ de mes dou-|leurs. Le- ve|toy, le- ve|toy, le- ve|toy beau So-|leil, souf- fre|que je t'a-|do- re:|
 f4 cc | c>B BB ef | g2 g2 f2 |[M:4/4] d2 B2 e4- | e2 G2 G2 A2 |[M:3/4] B2 B2 c2 | _d2 =d2 e2 | %29
w: Ha! je me|suis mes- pris, il n'est pas|jour en- co-|re, Mes yeux,|_ nous a- vons|tort, Il ne|vient point d'au-|
 f4 Bf | g4 c2 | c2 f4 |[M:4/4] d2 B2 e4- | e2 G2 F2 E2 |[M:3/4] E4 Gc | B2 B2 _d2 | c2 f2 c2 | %37
w: ro- re, Cal-|lis- te,|Cal- lis-|te, Cal- lis-|* te se ren-|dort. Le- ve|toy, le- ve|toy, le- ve|
 d4 ee | f4 FF |[M:4/4] B6 GG |[M:3/4] G4 F2 | f4 cc | c>B BB ef | g2 g2 f2 |[M:4/4] d2 B2 e4- | %45
w: toy beau So-|leil, souf- fre|que je t'a-|do- re:|Ha! je me|suis mes- pris, il n'est pas|jour en- co-|re, Mes yeux,|
 e2 G2 G2 A2 |[M:3/4] B2 B2 c2 | _d2 =d2 e2 | f4 Bf | g4 c2 | c2 f4 |[M:4/4] d2 B2 e4- | %52
w: _ nous a- vons|tort, Il ne|vient point d'au-|ro- re, Cal-|lis- te,|Cal- lis-|te, Cal- lis-|
 e2 G2 F2 E2 | E8 |] %54
w: * te se ren-|dort.|
V:2
 E6 | G4 F2 | E4 FG | A4 G2 |[M:4/4] F6 E2 | D2 E2 E4 | C4 D4 |[M:3/4] E6 | E6 | G4 F2 | E4 FG | %11
 A4 G2 |[M:4/4] F6 E2 | D2 E2 E4 | C4 D4 |[M:3/4] E4 EA | G4 B2 | A2 F4 | B4 E2 | B4 A2 | %20
[M:4/4] G4 D4 |[M:3/4] E4 B,2- | B,2 B4 | =A2 B2 GF | E2 G2 A2 |[M:4/4] B4 G4 | c4 B2 A2 | %27
[M:3/4] G4 A2 | B4 e2 | d4 ed | c2 B2 A2 | =A4 F2 |[M:4/4] B,4 G,4- | G,2 A,2 B,4 |[M:3/4] E4 EA | %35
 G4 B2 | A2 F4 | B4 E2 | B4 A2 |[M:4/4] G4 D4 |[M:3/4] E4 B,2- | B,2 B4 | =A2 B2 GF | E2 G2 A2 | %44
[M:4/4] B4 G4 | c4 B2 A2 |[M:3/4] G4 A2 | B4 e2 | d4 ed | c2 B2 A2 | =A4 F2 |[M:4/4] B,4 G,4- | %52
 G,2 A,2 B,4 | E8 |] %54
V:3
 [EGBe]6 | [EGB]4 [FA]2 | [EGB]4 [FA][EG] | [CEA]4 [DGB]2 |[M:4/4] [DFB]4 [CFA]4 | [GB]4 [EG]4 | %6
 [CE]4 [B,DF]4 |[M:3/4] [G,B,E]6 | [EGBe]6 | [EGB]4 [FA]2 | [EGB]4 [FA][EG] | [CEA]4 [DGB]2 | %12
[M:4/4] [DFB]4 [CFA]4 | [GB]4 [EG]4 | [CE]4 [B,DF]4 |[M:3/4] [G,B,E]4 B,E | D2 [DG]2 [FB]2 | %17
 [EA]2 [FAc]2 [CFA]2 | [DFB]4 [GB]2 | [Bd]2 [Gc]2 [FA]2 |[M:4/4] G2 FE D2 D2 |[M:3/4] [G,B,E]4 D2 | %22
 [FBd]4 [EGc]2 | [CF=A]2 FF [Gc][Bd] | [GBe]2 [Gce]2 [FAc]2 |[M:4/4] [DFB]4 [Gc]4 | c4 G2 F2 | %27
[M:3/4] [DG]2 [EG]2 [EA]2 | [FB]4 [GB]2 | [FBd]4 [GB][FBd] | [Gce]4 [CEA]2 | [F=A]2 [Fc]4 | %32
[M:4/4] [FB]2 G2 B4 | B2 c2 z4 |[M:3/4] z4 B,E | D2 [DG]2 [FB]2 | [EA]2 [FAc]2 [CFA]2 | %37
 [DFB]4 [GB]2 | [Bd]2 [Gc]2 [FA]2 |[M:4/4] G2 FE D2 D2 |[M:3/4] [G,B,E]4 D2 | [FBd]4 [EGc]2 | %42
 [CF=A]2 FF [Gc][Bd] | [GBe]2 [Gce]2 [FAc]2 |[M:4/4] [DFB]4 [Gc]4 | c4 G2 F2 | %46
[M:3/4] [DG]2 [EG]2 [EA]2 | [FB]4 [GB]2 | [FBd]4 [GB][FBd] | [Gce]4 [CEA]2 | [F=A]2 [Fc]4 | %51
[M:4/4] [FB]2 G2 B4 | B2 c2 z4 | z8 |] %54
V:4
 E,6 | G,4 F,2 | E,4 F,G, | A,4 G,2 |[M:4/4] F,6 E,2 | D,2 E,2 E,4 | C,4 D,4 |[M:3/4] E,6 | E,6 | %9
 G,4 F,2 | E,4 F,G, | A,4 G,2 |[M:4/4] F,6 E,2 | D,2 E,2 E,4 | C,4 D,4 |[M:3/4] E,4 E,A, | %16
 G,4 B,2 | A,2 F,4 | B,4 E,2 | B,4 A,2 |[M:4/4] G,4 D,4 |[M:3/4] E,4 B,,2- | B,,2 B,4 | %23
 =A,2 B,2 G,F, | E,2 G,2 A,2 |[M:4/4] B,4 G,4 | C4 B,2 A,2 |[M:3/4] G,4 A,2 | B,4 E2 | D4 ED | %30
 C2 B,2 A,2 | =A,4 F,2 |[M:4/4] B,,4 G,,4- | G,,2 A,,2 B,,4 |[M:3/4] E,4 E,A, | G,4 B,2 | A,2 F,4 | %37
 B,4 E,2 | B,4 A,2 |[M:4/4] G,4 D,4 |[M:3/4] E,4 B,,2- | B,,2 B,4 | =A,2 B,2 G,F, | E,2 G,2 A,2 | %44
[M:4/4] B,4 G,4 | C4 B,2 A,2 |[M:3/4] G,4 A,2 | B,4 E2 | D4 ED | C2 B,2 A,2 | =A,4 F,2 | %51
[M:4/4] B,,4 G,,4- | G,,2 A,,2 B,,4 | E,8 |] %54
V:5
 x6 | x6 | x6 | x6 |[M:4/4] x8 | x8 | x8 |[M:3/4] x6 | x6 | x6 | x6 | x6 |[M:4/4] x8 | x8 | x8 | %15
[M:3/4] x6 | x6 | x6 | x6 | x6 |[M:4/4] D4 B,4 |[M:3/4] x6 | x6 | x6 | x6 |[M:4/4] x8 | %26
 [EG]4 D2 C2 |[M:3/4] x6 | x6 | x6 | x6 | x6 |[M:4/4] x8 | x8 |[M:3/4] x6 | x6 | x6 | x6 | x6 | %39
[M:4/4] D4 B,4 |[M:3/4] x6 | x6 | x6 | x6 |[M:4/4] x8 | [EG]4 D2 C2 |[M:3/4] x6 | x6 | x6 | x6 | %50
 x6 |[M:4/4] x8 | x8 | x8 |] %54

